X: 22
T:Charming Mary Kelly (#222)
M:4/4
L:1/8
S:Capt. F. O'Neill
R:Reel
K:D
A/2G/2|:FD (3DDD d2 AB|cAGF EFGE|1FD (3DDD d2 AB|cAGE FD D2:|
2DFEG FABd|cAGE FD D2||:Addc d2 ed|cAGF EFGE|1Addc d2 cd|
eaag ed d2:|2DFEG FABd|cAGE FD D2||

